images/find.svg

<svg xmlns="http://www.w3.org/2000/svg" height="136pt" version="1.1" viewBox="-1 0 136 136.21852" width="136pt">
<g id="surface1">
<path d="M 93.148438 80.832031 C 109.5 57.742188 104.03125 25.769531 80.941406 9.421875 C 57.851562 -6.925781 25.878906 -1.460938 9.53125 21.632812 C -6.816406 44.722656 -1.351562 76.691406 21.742188 93.039062 C 38.222656 104.707031 60.011719 105.605469 77.394531 95.339844 L 115.164062 132.882812 C 119.242188 137.175781 126.027344 137.347656 130.320312 133.269531 C 134.613281 129.195312 134.785156 122.410156 130.710938 118.117188 C 130.582031 117.980469 130.457031 117.855469 130.320312 117.726562 Z M 51.308594 84.332031 C 33.0625 84.335938 18.269531 69.554688 18.257812 51.308594 C 18.253906 33.0625 33.035156 18.269531 51.285156 18.261719 C 69.507812 18.253906 84.292969 33.011719 84.328125 51.234375 C 84.359375 69.484375 69.585938 84.300781 51.332031 84.332031 C 51.324219 84.332031 51.320312 84.332031 51.308594 84.332031 Z M 51.308594 84.332031 " style=" stroke:none;fill-rule:nonzero;fill:rgb(0%,0%,0%);fill-opacity:1;" />
</g>
</svg>

<svg xmlns="http://www.w3.org/2000/svg" height="136pt" viewBox="-1 0 136 136.219" width="136pt"><path d="M93.148 80.832c16.352-23.09 10.883-55.062-12.207-71.41S25.88-1.461 9.531 21.632C-6.816 44.723-1.352 76.693 21.742 93.04a51.226 51.226 0 0055.653 2.3l37.77 37.544c4.077 4.293 10.862 4.465 15.155.387 4.293-4.075 4.465-10.86.39-15.153a9.21 9.21 0 00-.39-.39zm-41.84 3.5c-18.245.004-33.038-14.777-33.05-33.023-.004-18.246 14.777-33.04 33.027-33.047 18.223-.008 33.008 14.75 33.043 32.972.031 18.25-14.742 33.067-32.996 33.098h-.023zm0 0"/></svg>
